svg/fluentui-system-icons/ic_fluent_swimming_pool_20_filled.svg

<svg width="20" height="20" viewBox="0 0 20 20" fill="none" xmlns="http://www.w3.org/2000/svg">
<path d="M5.75005 4C5.33583 4 5.00005 4.33579 5.00005 4.75V5.25C5.00005 5.66421 4.66426 6 4.25005 6C3.83583 6 3.50005 5.66421 3.50005 5.25V4.75C3.50005 3.50736 4.50741 2.5 5.75005 2.5C6.99269 2.5 8.00005 3.50736 8.00005 4.75V7.5H13V4.75C13 4.33579 12.6643 4 12.25 4C11.8358 4 11.5 4.33579 11.5 4.75V5.25C11.5 5.66421 11.1643 6 10.75 6C10.3358 6 10 5.66421 10 5.25V4.75C10 3.50736 11.0074 2.5 12.25 2.5C13.4927 2.5 14.5 3.50736 14.5 4.75V11.7812C14.0974 11.9096 13.5891 12.0109 13 12.0004V9H8.00005V10.2288C7.47654 10.0955 6.97569 10.0255 6.50005 10.0076V4.75C6.50005 4.33579 6.16426 4 5.75005 4ZM5.81298 12.5274C5.00919 12.6188 4.46268 12.9457 4.20083 13.1399C3.86818 13.3867 3.39843 13.3171 3.15163 12.9845C2.90482 12.6518 2.97442 12.1821 3.30707 11.9353C3.71926 11.6295 4.51032 11.1658 5.64363 11.037C6.78707 10.9071 8.21567 11.1256 9.87754 12.0895C12.8111 13.791 15.1814 12.6678 15.8746 12.261C16.2318 12.0513 16.6914 12.171 16.901 12.5282C17.1107 12.8854 16.991 13.345 16.6338 13.5546C15.7187 14.0917 12.7285 15.4772 9.12495 13.3871C7.71468 12.5691 6.60665 12.4372 5.81298 12.5274ZM5.81298 15.5274C5.00919 15.6188 4.46268 15.9457 4.20083 16.1399C3.86818 16.3867 3.39843 16.3171 3.15163 15.9845C2.90482 15.6518 2.97442 15.1821 3.30707 14.9353C3.71926 14.6295 4.51032 14.1658 5.64363 14.037C6.78707 13.9071 8.21567 14.1256 9.87754 15.0895C12.8111 16.791 15.1814 15.6678 15.8746 15.261C16.2318 15.0513 16.6914 15.171 16.901 15.5282C17.1107 15.8854 16.991 16.345 16.6338 16.5546C15.7187 17.0917 12.7285 18.4772 9.12495 16.3871C7.71468 15.5691 6.60665 15.4372 5.81298 15.5274Z" fill="#212121"/>
</svg>

<svg xmlns="http://www.w3.org/2000/svg" width="20" height="20"><path d="M5.75 4a.75.75 0 0 0-.75.75v.5a.75.75 0 0 1-1.5 0v-.5a2.25 2.25 0 0 1 4.5 0V7.5h5V4.75a.75.75 0 1 0-1.5 0v.5a.75.75 0 1 1-1.5 0v-.5a2.25 2.25 0 0 1 4.5 0v7.031a4.66 4.66 0 0 1-1.5.22V9H8v1.229a7.163 7.163 0 0 0-1.5-.221V4.75A.75.75 0 0 0 5.75 4Zm.063 8.527a3.35 3.35 0 0 0-1.612.613.75.75 0 0 1-.894-1.205 4.847 4.847 0 0 1 2.337-.898c1.143-.13 2.572.089 4.234 1.052 2.933 1.702 5.303.579 5.997.172a.75.75 0 1 1 .759 1.294c-.915.537-3.905 1.922-7.51-.168-1.41-.818-2.517-.95-3.311-.86Zm0 3a3.35 3.35 0 0 0-1.612.613.75.75 0 0 1-.894-1.205 4.847 4.847 0 0 1 2.337-.898c1.143-.13 2.572.089 4.234 1.052 2.933 1.702 5.303.579 5.997.172a.75.75 0 1 1 .759 1.294c-.915.537-3.905 1.922-7.51-.168-1.41-.818-2.517-.95-3.311-.86Z"/></svg>
